X: 14
T: Mazurka in G Minor, Op. 24, No. 1
C: Frederic Chopin
%%abc-version 2.0
%%abcx-abcm2ps-target-version 5.9.1 (29 Sep 2008)
%%abc-creator hum2abc beta
%%abcx-conversion-date 2021/01/17 12:55:00
%%abc-edited-by Craig Stuart Sapp
%%abcx-initial-encoding-date 2005/02/11/
%%gracespace 0 6 6
%%humdrum-veritas 1505899776
%%humdrum-veritas-data 169623664
%%linebreak <none>
%%barnumbers 0
L: 1/4
M: 3/4
N: Derived from mazurka24-1.krn
Q: "Lento" 1/4=108
%%staves {1 2}
V: 1 clef=treble
V: 2 clef=bass
K: Bb
[V:1] !accent!A- [I:setbarnb 1]]|:  
[V:2] z ]|:  
[V:1] A/z//^F//.D.F | 
[V:2] D,,[D,A,C][D,A,CD] | 
[V:1] !accent!G2A/B/ | 
[V:2] G,,[G,B,D][G,B,D][K:clef=treble] | 
[V:1] c/z//d//e^f | 
[V:2] z.[G,CEG].[G,CEA][K:clef=bass] | 
[V:1] g<dz & B3 | 
[V:2] z.[G,D].[G,D] | 
[V:1] A/z//^F//.D.F | 
[V:2] D,,[D,A,C][D,A,CD] | 
[V:1] !accent!G2d3//^c// | 
[V:2] G,,[G,B,D][G,B,D] | 
[V:1] B/z//A//.G.^F | 
[V:2] z[D,G,B,=E][D,A,^C] | 
[V:1] {/^F}!accent!D2!accent!A- | 
[V:2] z.[D,A,].[D,A,] | 
[V:1] A/^F/DB3//A// & xxF | 
[V:2] D,,[D,A,C][D,A,CD] | 
[V:1] G2A/B/ & !accent!G2x | 
[V:2] .G,,[G,B,D][G,B,D][K:clef=treble] | 
[V:1] c/z//d//e!accent!^f | 
[V:2] z.[G,CEG].[G,CEA][K:clef=bass] | 
[V:1] g<dz & B3 | 
[V:2] z.[G,D].[G,D] | 
[V:1] A/z//^F//DF | 
[V:2] D,,[D,A,C][D,A,CD] | 
[V:1] !accent!G2d3//^c// | 
[V:2] G,,[G,B,D][G,B,D] | 
[V:1] B/A/.G.^F | 
[V:2] z[D,G,B,=E][D,A,^C] | 
[V:1] {/^F}!accent!D3 | 
[V:2] z.[D,A,].[D,A,] | 
[V:1] .=F(3!accent!G/A/G/.F | 
[V:2] =F,,[F,B,E][F,A,E] | 
[V:1] (3!accent!G/A/G/.F!accent!g | 
[V:2] [F,B,E][F,A,E]z | 
[V:1] (3f/g/f/!accent!=e3/_e/ | 
[V:2] F,,[K:clef=treble][C_EA][CEA][K:clef=bass] | 
[V:1] (3e/f/e/!accent!d2 | 
[V:2] .B,,[K:clef=treble]!arpeggio![F,B,DB]z[K:clef=bass] | 
[V:1] .F(3!accent!G/A/G/.F | 
[V:2] F,,[F,E][F,A,E] | 
[V:1] (3!accent!G/A/G/.F!accent!e | 
[V:2] [F,B,E][F,A,E][F,A,G] | 
[V:1] (3d/e/d/^c3/=c/ | 
[V:2] [F,A,F][F,A,=E][F,A,_E] | 
[V:1] (3c/d/c/B!accent!A/G/ | 
[V:2] .B,,[F,B,D][F,B,D] | 
[V:1] .F(3!accent!G/A/G/.F | 
[V:2] F,,[F,B,E][F,A,E] | 
[V:1] (3!accent!G/A/G/.F!accent!g | 
[V:2] [F,B,E][F,A,E][F,A,E] | 
[V:1] (3f/g/f/!accent!=e3/_e/ | 
[V:2] F,,[K:clef=treble][CEA][CEA][K:clef=bass] | 
[V:1] (3e/f/e/!accent!d2 | 
[V:2] .B,,[K:clef=treble][F,B,DB]z[K:clef=bass] | 
[V:1] .F(3!accent!G/A/G/.F | 
[V:2] .F,,[F,B,E][F,A,E] | 
[V:1] (3!accent!G/A/G/.F!accent!e | 
[V:2] [F,B,E][F,A,E][F,A,G] | 
[V:1] (3d/e/d/!accent!^c3/=c/ |[1 
[V:2] [F,A,F][F,A,=E][F,A,_E] | 
[V:1] (3c/d/c/!accent!=B3/_B/ :|][2 
[V:2] B,,[^F,D][G,D] :|]  
[V:1] (3c/d/c/B3/=B/ | 
[V:2] .B,,[F,D][F,D] | 
[V:1] [_A/c/]z//[G//_B//][F3/A3/][A/c/] | 
[V:2] B,,,[F,B,D][F,B,D] | 
[V:1] !accent![_A/c/]z//[G//B//]!accent![E3/G3/][A/c/] | 
[V:2] .E,,[G,B,][G,B,E] | 
[V:1] !accent![_A/c/]z//[G//B//][F3/A3/][A/c/] | 
[V:2] .B,,[F,B,D][F,B,D] | 
[V:1] [_A/c/]z//[G//B//].[Ge]!accent![Gg] | 
[V:2] .E,,[E,B,E][E,=B,E] | 
[V:1] f/>e/ce & _AAG | 
[V:2] [E,CE][E,CE][E,_B,E] | 
[V:1] f/z//e//ce & _A/ z/AG | 
[V:2] [E,/C/E/] z/[E,CE][E,B,E] | 
[V:1] [_A/c/]>[G/B/][F3/A3/][A/c/] | 
[V:2] [E,B,D][E,B,D][E,B,D] | 
[V:1] [_A/c/]>[G/B/][E2G2] | 
[V:2] E,,[G,B,][G,B,] | 
[V:1] {/D} !accent![_A/c/]z//[G//B//][F3/A3/][A/c/] | 
[V:2] .B,,[F,B,D][F,B,D] | 
[V:1] [_A/c/]z//[G//B//]!accent![E3/G3/][G/B/] | 
[V:2] .E,,[G,B,][G,B,E] | 
[V:1] {/[GB]d} !accent![_A/c/]z//[G//B//][F3/A3/][A/c/] | 
[V:2] B,,[F,B,D][F,B,D] | 
[V:1] [_A/c/]z//[G//B//].[Ge]!accent![Gg] | 
[V:2] .E,,[E,B,E][E,=B,E] | 
[V:1] f/>e/ce & _AAG | 
[V:2] [E,CE][E,CE][E,_B,E] | 
[V:1] .f/z//e//ce & _A/ z/AG | 
[V:2] [E,/C/E/] z/[E,CE][E,B,E] | 
[V:1] [_A/c/]>[G/B/][F3/A3/][A/c/] | 
[V:2] [E,B,D][E,B,D][E,B,D] | 
[V:1] [G/c/]>B/!accent!G2 & !accent!_DD^C | 
[V:2] E,,[E,B,][E,=A,] | 
[V:1] A/z//^F//DF & =CCC | 
[V:2] .=D,,[D,A,][D,A,] | 
[V:1] !accent!G2A/B/ & B,xx | 
[V:2] G,,[G,B,D][G,B,D][K:clef=treble] | 
[V:1] c/z//d//e^f | 
[V:2] z.[G,CEG].[G,CEA][K:clef=bass] | 
[V:1] g<dz & B3 | 
[V:2] z.[G,D].[G,D] | 
[V:1] A/z//^F//DF | 
[V:2] D,,[D,A,C][D,A,CD] | 
[V:1] !accent!G2d3//^c// | 
[V:2] .G,,[G,B,D][G,B,D] | 
[V:1] .B/.A/.G.!accent!^F | 
[V:2] z[D,G,B,=E][D,A,^C] | 
[V:1] {/^F}!accent!D2!accent!A- | 
[V:2] z.[D,A,].[D,A,] | 
[V:1] A/z//^F//^C/D/[F3//B3//]A// & x3/D3/ | 
[V:2] D,,[D,A,][D,A,=C] | 
[V:1] !accent!G2A/B/ | 
[V:2] .G,,[G,B,D][G,B,D][K:clef=treble] | 
[V:1] c/z//d//e!accent!^f | 
[V:2] z.[G,CEG].[G,CEA][K:clef=bass] | 
[V:1] g<dz & !accent!B3 | 
[V:2] z[G,D][G,D] | 
[V:1] .A/z//^F//DF | 
[V:2] .D,,[D,A,C][D,A,C] | 
[V:1] !accent!G>d{/d=f}e/z//d// | 
[V:2] G,,[D,B,]z | 
[V:1] ^c/d/A!accent!B/A/ | 
[V:2] D,,[D,^F,=C][D,F,C] | 
[V:1] Ggz |]  
[V:2] !arpeggio![G,,D,B,]G,,,z |]  


